X:39
T:March In M?s?ielle. ST.39
M:C
L:1/8
Q:1/4=100
S:Anonymous Staffordshire MS, Early 19thC.
R:.March
O:England
A:Staffordshire
N:Title not legible.
Z:vmp.Tim Willets
K:C
e>f|”^F”g2e>d c2e>f|g6a>b|c’2bc’e2f>g|(a4g2)zg|!
g2f>ed2a>g|g2a>bc’2b>a|d’2d>e^f2g>a|g6:|!
|:d>d|d2d>d c>BA>G|e2 e>e d>cBc|d2 d>d c>BA>G|(e4c2)e>f|!
g2e>dc2e>f|g6a>b|c’2(b>c’)e2(f>g)|(a4g2)zg|!
g2f>ed2a>g|g2a>bc’2e>f|g2e>cg2f>d|c2c’>c’c’2:|

